X:22
T:Love Is a Tormenting Pain
T:Love's a Tormenting Pain
T:Is Galar Cr\'aidhte an Gr\'adh
R:air
C:William Connellan (c. 1645 - c. 1700) (?)
H:Originally in key of F
Z:id:hn-air-22
M:3/4
L:1/8
Q:1/4=80
K:G
d2 | e2 d>e g2 | G4 G//A//B3/ | d2 ed BA | B4 d2 |
e2 d>e g2 | G4 A2 | B4 A//G//F3/ | G4 :|
d2 | d2 d2 e>f | g4 b2 | g4 f2 | e4 d2 |
d2 ed Bd | e2 d>e f>e | f2 d2 d2 | d4 (3def |
g2 f2 e2 | d2 c2 B2 | A2 B>A G>d | B4 d2 |
e2 d>e g2 | G4 A2 | B4 A2 | G4 || 

